rospo-newyear-dark/symbolic/status/rotation-allowed-symbolic.svg

<svg height="16" width="16" xmlns="http://www.w3.org/2000/svg"><path d="m8 2c-3.3137 0-6 2.6863-6 6h-2l3 4 3-4h-2c0-2.2091 1.7909-4 4-4 2.209 0 4 1.7909 4 4 0 2.209-1.791 4-4 4a1 1 0 0 0 -1 1 1 1 0 0 0 1 1 1 1 0 0 0  .0957-.004c3.2693-.052 5.9043-2.714 5.9043-5.996 0-3.3137-2.686-6-6-6z" fill="#d3dae3"/></svg>

<svg xmlns="http://www.w3.org/2000/svg" width="16" height="16" version="1.1">
 <path style="fill:#d3dae3" d="M 8,2 C 4.6863,2 2,4.6863 2,8 H 0 L 3,12 6,8 H 4 C 4,5.7909 5.7909,4 8,4 10.209,4 12,5.7909 12,8 12,10.209 10.209,12 8,12 A 1,1 0 0 0 7,13 1,1 0 0 0 8,14 1,1 0 0 0 8.0957,13.996 C 11.365,13.944 14,11.282 14,8 14,4.6863 11.314,2 8,2 Z"/>
</svg>
